public/svg/nodeJs.svg

<svg width="24" height="24" viewBox="0 0 24 24" fill="none" xmlns="http://www.w3.org/2000/svg">
<path d="M11.0114 0.304799C11.3137 0.137545 11.6536 0.0498047 11.999 0.0498047C12.3445 0.0498047 12.6844 0.137545 12.9866 0.304799C15.9944 1.9878 19.0028 3.6678 22.0094 5.352C22.5758 5.667 22.9538 6.291 22.9478 6.936V17.0598C22.9514 17.7318 22.5368 18.3702 21.9398 18.678C18.9416 20.352 15.9464 22.0278 12.9494 23.7012C12.3386 24.0468 11.5436 24.021 10.9514 23.646C10.0538 23.13 9.15265 22.617 8.25445 22.1022C8.07085 21.993 7.86445 21.9072 7.73485 21.7308C7.84885 21.5778 8.05345 21.5592 8.22085 21.4908C8.59585 21.3738 8.94085 21.1842 9.28465 21C9.37165 20.9412 9.47785 20.964 9.56185 21.0162C10.3298 21.453 11.0918 21.9018 11.8628 22.3338C12.0278 22.428 12.1934 22.3038 12.3344 22.2258C15.2756 20.5788 18.2204 18.939 21.1616 17.292C21.214 17.2663 21.2574 17.2253 21.286 17.1744C21.3146 17.1235 21.3271 17.0651 21.3218 17.007C21.3248 13.6668 21.3224 10.3272 21.3236 6.987C21.3289 6.92157 21.3135 6.85614 21.2796 6.79994C21.2457 6.74374 21.195 6.69961 21.1346 6.6738C18.1478 5.0088 15.1616 3.3402 12.1748 1.674C12.1231 1.63915 12.0621 1.62054 11.9996 1.62054C11.9372 1.62054 11.8762 1.63915 11.8244 1.674C8.83645 3.3402 5.85085 5.01 2.86345 6.6762C2.80339 6.70137 2.75279 6.74484 2.71886 6.80042C2.68493 6.856 2.66939 6.92087 2.67445 6.9858V17.01C2.66974 17.0679 2.68285 17.1258 2.71202 17.176C2.7412 17.2262 2.78504 17.2662 2.83765 17.2908C3.63445 17.739 4.43245 18.183 5.22985 18.6288C5.67985 18.8688 6.23065 19.011 6.72565 18.8268C6.94153 18.7472 7.12778 18.6032 7.25922 18.4144C7.39067 18.2255 7.46098 18.0009 7.46065 17.7708C7.46485 14.451 7.45885 11.13 7.46365 7.8102C7.45345 7.6632 7.59385 7.5402 7.73845 7.5552C8.12184 7.55118 8.50526 7.55118 8.88865 7.5552C9.04885 7.5522 9.15865 7.7112 9.13885 7.8588C9.13645 11.2008 9.14245 14.5422 9.13585 17.8842C9.13585 18.774 8.76685 19.7442 7.93585 20.1792C6.91045 20.7048 5.64385 20.5938 4.63165 20.0892C3.75565 19.656 2.91865 19.1448 2.05885 18.681C1.45945 18.3738 1.04665 17.7342 1.05085 17.061V6.9372C1.04485 6.2778 1.43785 5.6442 2.02045 5.3328L11.0108 0.305999L11.0114 0.304799Z" fill="#8CC84B"/>
<path d="M13.6275 7.31832C14.9343 7.23492 16.3335 7.26792 17.5095 7.90692C18.4203 8.39532 18.9255 9.42132 18.9411 10.4233C18.9153 10.5583 18.7731 10.6333 18.6435 10.6231C18.2631 10.6231 17.8845 10.6279 17.5053 10.6213C17.3445 10.6273 17.2503 10.4803 17.2305 10.3393C17.1213 9.85932 16.8573 9.38532 16.4025 9.15432C15.7023 8.80692 14.8923 8.82432 14.1285 8.83212C13.5723 8.86092 12.9735 8.90892 12.5013 9.23232C12.1395 9.47832 12.0291 9.97392 12.1581 10.3741C12.2805 10.6603 12.6141 10.7533 12.8883 10.8379C14.4633 11.2459 16.1325 11.2063 17.6781 11.7421C18.3183 11.9623 18.9435 12.3871 19.1625 13.0501C19.4481 13.9399 19.3221 15.0019 18.6843 15.7159C18.1665 16.3033 17.4123 16.6231 16.6593 16.7959C15.6591 17.0173 14.6193 17.0233 13.6035 16.9249C12.6483 16.8169 11.6535 16.5679 10.9155 15.9229C10.2855 15.3811 9.9753 14.5351 10.0071 13.7191C10.0143 13.5823 10.1523 13.4851 10.2861 13.4971C10.6683 13.4941 11.0493 13.4929 11.4315 13.4971C11.5845 13.4869 11.6973 13.6171 11.7051 13.7593C11.7753 14.2159 11.9493 14.6959 12.3513 14.9659C13.1271 15.4621 14.1015 15.4279 14.9901 15.4423C15.7263 15.4099 16.5531 15.4003 17.1531 14.9179C17.4705 14.6431 17.5641 14.1829 17.4795 13.7881C17.3865 13.4539 17.0331 13.2979 16.7301 13.1959C15.1755 12.7093 13.4871 12.8863 11.9475 12.3349C11.3223 12.1159 10.7175 11.7019 10.4775 11.0659C10.1421 10.1659 10.2963 9.05292 11.0013 8.36292C11.6895 7.67712 12.6825 7.41312 13.6275 7.31832Z" fill="#8CC84B"/>
</svg>

<svg xmlns="http://www.w3.org/2000/svg" width="24" height="24" fill="#8cc84b" xmlns:v="https://vecta.io/nano"><path d="M11.011.305a2.04 2.04 0 0 1 1.975 0l9.023 5.047c.566.315.944.939.938 1.584V17.06c.004.672-.411 1.31-1.008 1.618l-8.99 5.023c-.611.346-1.406.32-1.998-.055l-2.697-1.544c-.184-.109-.39-.195-.52-.371.114-.153.319-.172.486-.24.375-.117.72-.307 1.064-.491.087-.059.193-.036.277.016l2.301 1.318c.165.094.331-.03.472-.108l8.827-4.934c.052-.026.096-.067.124-.118s.041-.109.036-.167l.002-10.02c.005-.065-.01-.131-.044-.187s-.085-.1-.145-.126l-8.96-5c-.052-.035-.113-.053-.175-.053a.32.32 0 0 0-.175.053L2.863 6.676a.31.31 0 0 0-.189.31V17.01c-.005.058.008.116.038.166s.073.09.126.115l2.392 1.338c.45.24 1.001.382 1.496.198.216-.08.402-.224.534-.412a1.11 1.11 0 0 0 .201-.644l.003-9.961c-.01-.147.13-.27.275-.255h1.15c.16-.003.27.156.25.304l-.003 10.025c0 .89-.369 1.86-1.2 2.295-1.025.526-2.292.415-3.304-.09l-2.573-1.408c-.599-.307-1.012-.947-1.008-1.62V6.937c-.006-.659.387-1.293.97-1.604l8.99-5.027V.305zm2.617 7.013c1.307-.083 2.706-.05 3.882.589.911.488 1.416 1.514 1.432 2.516-.026.135-.168.21-.298.2-.38 0-.759.005-1.138-.002-.161.006-.255-.141-.275-.282-.109-.48-.373-.954-.828-1.185-.7-.347-1.51-.33-2.274-.322-.556.029-1.155.077-1.627.4-.362.246-.472.742-.343 1.142.122.286.456.379.73.464 1.575.408 3.244.368 4.79.904.64.22 1.265.645 1.484 1.308.286.89.16 1.952-.478 2.666-.518.587-1.272.907-2.025 1.08-1 .221-2.04.227-3.056.129-.955-.108-1.95-.357-2.688-1.002-.63-.542-.94-1.388-.908-2.204.007-.137.145-.234.279-.222h1.145c.153-.01.266.12.274.262.07.457.244.937.646 1.207.776.496 1.75.462 2.639.476.736-.032 1.563-.042 2.163-.524.317-.275.411-.735.326-1.13-.093-.334-.446-.49-.749-.592-1.555-.487-3.243-.31-4.783-.861-.625-.219-1.23-.633-1.47-1.269-.335-.9-.181-2.013.524-2.703.688-.686 1.681-.95 2.626-1.045z"/></svg>
